; generated by Slic3r 1.3.0 on 2020-02-19 at 16:24:23

; external perimeters extrusion width = 0.44mm (1.19mm^3/s)
; perimeters extrusion width = 0.56mm (3.10mm^3/s)
; infill extrusion width = 0.50mm (2.74mm^3/s)
; solid infill extrusion width = 0.56mm (2.07mm^3/s)
; top infill extrusion width = 0.56mm (1.55mm^3/s)
; support material extrusion width = 0.44mm (2.38mm^3/s)

M107
M190 S45 ; set bed temperature and wait for it to be reached
M104 S195 ; set temperature
G28 ; home all axes
G1 Z5 F5000 ; lift nozzle

; Filament gcode

M109 S195 ; set temperature and wait for it to be reached
G21 ; set units to millimeters
G90 ; use absolute coordinates
M82 ; use absolute distances for extrusion
G92 E0
G1 Z0.200 F6000.000
G1 E-2.00000 F2400.00000
G92 E0
G1 X990.181 Y990.854 F6000.000
G1 E2.00000 F2400.00000
G1 F1800
G1 X991.923 Y989.437 E2.06669
G1 X995.000 Y988.643 E2.16103
G1 X1005.000 Y988.643 E2.45795
G1 X1007.211 Y989.040 E2.52464
G1 X1009.146 Y990.181 E2.59133
G1 X1010.563 Y991.923 E2.65803
G1 X1011.357 Y995.000 E2.75237
G1 X1011.357 Y1005.000 E3.04928
G1 X1010.960 Y1007.211 E3.11597
G1 X1009.819 Y1009.146 E3.18267
G1 X1008.077 Y1010.563 E3.24936
G1 X1005.000 Y1011.357 E3.34370
G1 X995.000 Y1011.357 E3.64061
G1 X992.789 Y1010.960 E3.70731
G1 X990.854 Y1009.819 E3.77400
G1 X989.437 Y1008.077 E3.84070
G1 X988.643 Y1005.000 E3.93504
G1 X988.643 Y995.000 E4.23195
G1 X989.040 Y992.789 E4.29864
G1 X990.150 Y990.906 E4.36356
G1 E2.36356 F2400.00000
G92 E0
G1 X1004.086 Y1004.086 F6000.000
G1 E2.00000 F2400.00000
G1 F1800
G1 X995.914 Y1004.086 E2.24263
G1 X995.914 Y995.914 E2.48526
G1 X1004.086 Y995.914 E2.72788
G1 X1004.086 Y1004.026 E2.96873
G1 X1004.443 Y1004.443 F6000.000
G1 F1800
G1 X995.557 Y1004.443 E3.23256
G1 X995.557 Y995.557 E3.49639
G1 X1004.443 Y995.557 E3.76023
G1 X1004.443 Y1004.383 E4.02228
G1 X1004.800 Y1004.800 F6000.000
G1 F1800
G1 X995.200 Y1004.800 E4.30731
G1 X995.200 Y995.200 E4.59235
G1 X1004.800 Y995.200 E4.87739
G1 X1004.800 Y1004.740 E5.16064
G1 X1004.414 Y1004.696 F6000.000
G1 X1003.590 Y1003.868 F6000.000
G1 F1800
G1 X1003.868 Y1003.590 E5.17252
G1 X1003.868 Y1003.075 E5.18808
G1 X1003.075 Y1003.868 E5.22195
G1 X1002.561 Y1003.868 E5.23751
G1 X1003.868 Y1002.561 E5.29338
G1 X1003.868 Y1002.047 E5.30893
G1 X1002.047 Y1003.868 E5.38680
G1 X1001.533 Y1003.868 E5.40235
G1 X1003.868 Y1001.533 E5.50221
G1 X1003.868 Y1001.018 E5.51776
G1 X1001.018 Y1003.868 E5.63961
G1 X1000.504 Y1003.868 E5.65517
G1 X1003.868 Y1000.504 E5.79901
G1 X1003.868 Y999.990 E5.81456
G1 X999.990 Y1003.868 E5.98041
G1 X999.475 Y1003.868 E5.99596
G1 X1003.868 Y999.475 E6.18379
G1 X1003.868 Y998.961 E6.19935
G1 X998.961 Y1003.868 E6.40918
G1 X998.447 Y1003.868 E6.42473
G1 X1003.868 Y998.447 E6.65655
G1 X1003.868 Y997.932 E6.67210
G1 X997.932 Y1003.868 E6.92592
G1 X997.418 Y1003.868 E6.94147
G1 X1003.868 Y997.418 E7.21728
G1 X1003.868 Y996.904 E7.23284
G1 X996.904 Y1003.868 E7.53064
G1 X996.390 Y1003.868 E7.54619
G1 X1003.868 Y996.390 E7.86599
G1 X1003.868 Y996.132 E7.87377
G1 X1003.611 Y996.132 E7.88155
G1 X996.132 Y1003.611 E8.20135
G1 X996.132 Y1003.096 E8.21690
G1 X1003.096 Y996.132 E8.51471
G1 X1002.582 Y996.132 E8.53026
G1 X996.132 Y1002.582 E8.80607
G1 X996.132 Y1002.068 E8.82162
G1 X1002.068 Y996.132 E9.07544
G1 X1001.553 Y996.132 E9.09099
G1 X996.132 Y1001.553 E9.32282
G1 X996.132 Y1001.039 E9.33837
G1 X1001.039 Y996.132 E9.54820
G1 X1000.525 Y996.132 E9.56375
G1 X996.132 Y1000.525 E9.75159
G1 X996.132 Y1000.010 E9.76714
G1 X1000.010 Y996.132 E9.93299
G1 X999.496 Y996.132 E9.94854
G1 X996.132 Y999.496 E10.09239
G1 X996.132 Y998.982 E10.10794
G1 X998.982 Y996.132 E10.22979
G1 X998.467 Y996.132 E10.24535
G1 X996.132 Y998.467 E10.34521
G1 X996.132 Y997.953 E10.36076
G1 X997.953 Y996.132 E10.43863
G1 X997.439 Y996.132 E10.45418
G1 X996.132 Y997.439 E10.51005
G1 X996.132 Y996.925 E10.52560
G1 X996.925 Y996.132 E10.55948
G1 X996.410 Y996.132 E10.57503
G1 X996.133 Y996.410 E10.58691
G1 Z0.200 F6000.000
G1 Z0.400 F6000.000
G1 X1003.806 Y1003.806 F6000.000
G1 F900
G1 X996.194 Y1003.806 E10.91418
G1 X996.194 Y996.194 E11.24144
G1 X1003.806 Y996.194 E11.56871
G1 X1003.806 Y1003.746 E11.89340
G1 X1004.323 Y1004.323 F6000.000
G1 F900
G1 X995.677 Y1004.323 E12.26513
G1 X995.677 Y995.677 E12.63686
G1 X1004.323 Y995.677 E13.00859
G1 X1004.323 Y1004.263 E13.37774
G1 X1004.780 Y1004.780 F6000.000
G1 F900
G1 X995.220 Y1004.780 E13.69339
G1 X995.220 Y995.220 E14.00903
G1 X1004.780 Y995.220 E14.32468
G1 X1004.780 Y1004.720 E14.63834
G1 X1004.394 Y1004.676 F6000.000
G1 X1003.490 Y996.912 F6000.000
G1 F1200
G1 X1003.088 Y996.510 E14.66423
G1 X1002.314 Y996.510 E14.69944
G1 X1003.490 Y997.686 E14.77512
G1 X1003.490 Y998.460 E14.81032
G1 X1001.540 Y996.510 E14.93579
G1 X1000.766 Y996.510 E14.97099
G1 X1003.490 Y999.234 E15.14625
G1 X1003.490 Y1000.008 E15.18146
G1 X999.992 Y996.510 E15.40650
G1 X999.218 Y996.510 E15.44171
G1 X1003.490 Y1000.782 E15.71654
G1 X1003.490 Y1001.555 E15.75175
G1 X998.445 Y996.510 E16.07637
G1 X997.671 Y996.510 E16.11158
G1 X1003.490 Y1002.329 E16.48599
G1 X1003.490 Y1003.103 E16.52120
G1 X996.897 Y996.510 E16.94540
G1 X996.510 Y996.510 E16.96301
G1 X996.510 Y996.897 E16.98061
G1 X1003.103 Y1003.490 E17.40481
G1 X1002.329 Y1003.490 E17.44002
G1 X996.510 Y997.671 E17.81443
G1 X996.510 Y998.445 E17.84964
G1 X1001.555 Y1003.490 E18.17426
G1 X1000.782 Y1003.490 E18.20947
G1 X996.510 Y999.218 E18.48431
G1 X996.510 Y999.992 E18.51951
G1 X1000.008 Y1003.490 E18.74456
G1 X999.234 Y1003.490 E18.77977
G1 X996.510 Y1000.766 E18.95502
G1 X996.510 Y1001.540 E18.99023
G1 X998.460 Y1003.490 E19.11570
G1 X997.686 Y1003.490 E19.15090
G1 X996.510 Y1002.314 E19.22658
G1 X996.510 Y1003.088 E19.26179
G1 X996.912 Y1003.490 E19.28767
G1 Z0.600 F6000.000
G1 X1003.806 Y1003.806 F6000.000
G1 F900
G1 X996.194 Y1003.806 E19.61493
G1 X996.194 Y996.194 E19.94220
G1 X1003.806 Y996.194 E20.26947
G1 X1003.806 Y1003.746 E20.59416
G1 X1004.323 Y1004.323 F6000.000
G1 F900
G1 X995.677 Y1004.323 E20.96589
G1 X995.677 Y995.677 E21.33762
G1 X1004.323 Y995.677 E21.70935
G1 X1004.323 Y1004.263 E22.07850
G1 X1004.780 Y1004.780 F6000.000
G1 F900
G1 X995.220 Y1004.780 E22.39415
G1 X995.220 Y995.220 E22.70979
G1 X1004.780 Y995.220 E23.02544
G1 X1004.780 Y1004.720 E23.33910
G1 X1004.394 Y1004.676 F6000.000
G1 X1003.088 Y1003.490 F6000.000
G1 F1200
G1 X1003.490 Y1003.088 E23.36499
G1 X1003.490 Y1002.314 E23.40019
G1 X1002.314 Y1003.490 E23.47587
G1 X1001.540 Y1003.490 E23.51108
G1 X1003.490 Y1001.540 E23.63654
G1 X1003.490 Y1000.766 E23.67175
G1 X1000.766 Y1003.490 E23.84701
G1 X999.992 Y1003.490 E23.88221
G1 X1003.490 Y999.992 E24.10726
G1 X1003.490 Y999.218 E24.14246
G1 X999.218 Y1003.490 E24.41730
G1 X998.445 Y1003.490 E24.45250
G1 X1003.490 Y998.445 E24.77713
G1 X1003.490 Y997.671 E24.81233
G1 X997.671 Y1003.490 E25.18675
G1 X996.897 Y1003.490 E25.22195
G1 X1003.490 Y996.897 E25.64616
G1 X1003.490 Y996.510 E25.66376
G1 X1003.103 Y996.510 E25.68136
G1 X996.510 Y1003.103 E26.10557
G1 X996.510 Y1002.329 E26.14077
G1 X1002.329 Y996.510 E26.51519
G1 X1001.555 Y996.510 E26.55039
G1 X996.510 Y1001.555 E26.87502
G1 X996.510 Y1000.782 E26.91023
G1 X1000.782 Y996.510 E27.18506
G1 X1000.008 Y996.510 E27.22027
G1 X996.510 Y1000.008 E27.44531
G1 X996.510 Y999.234 E27.48052
G1 X999.234 Y996.510 E27.65578
G1 X998.460 Y996.510 E27.69098
G1 X996.510 Y998.460 E27.81645
G1 X996.510 Y997.686 E27.85166
G1 X997.686 Y996.510 E27.92734
G1 X996.912 Y996.510 E27.96254
G1 X996.510 Y996.912 E27.98842
M106 S237.15
G1 Z0.800 F6000.000
G1 X1003.806 Y1003.806 F6000.000
G1 F900
G1 X996.194 Y1003.806 E28.31569
G1 X996.194 Y996.194 E28.64296
G1 X1003.806 Y996.194 E28.97022
G1 X1003.806 Y1003.746 E29.29491
G1 X1004.323 Y1004.323 F6000.000
G1 F900
G1 X995.677 Y1004.323 E29.66664
G1 X995.677 Y995.677 E30.03837
G1 X1004.323 Y995.677 E30.41010
G1 X1004.323 Y1004.263 E30.77925
G1 X1004.780 Y1004.780 F6000.000
G1 F900
G1 X995.220 Y1004.780 E31.09490
G1 X995.220 Y995.220 E31.41055
G1 X1004.780 Y995.220 E31.72619
G1 X1004.780 Y1004.720 E32.03986
G1 X1004.394 Y1004.676 F6000.000
G1 X1003.508 Y996.871 F6000.000
G1 F1800
G1 X1003.129 Y996.492 E32.06023
G1 X1002.465 Y996.492 E32.08545
G1 X1003.508 Y997.535 E32.14150
G1 X1003.508 Y998.198 E32.16672
G1 X1001.802 Y996.492 E32.25845
G1 X1001.138 Y996.492 E32.28367
G1 X1003.508 Y998.862 E32.41107
G1 X1003.508 Y999.526 E32.43630
G1 X1000.474 Y996.492 E32.59937
G1 X999.811 Y996.492 E32.62459
G1 X1003.508 Y1000.189 E32.82334
G1 X1003.508 Y1000.853 E32.84857
G1 X999.147 Y996.492 E33.08299
G1 X998.483 Y996.492 E33.10822
G1 X1003.508 Y1001.517 E33.37832
G1 X1003.508 Y1002.181 E33.40354
G1 X997.819 Y996.492 E33.70932
G1 X997.156 Y996.492 E33.73454
G1 X1003.508 Y1002.844 E34.07599
G1 X1003.508 Y1003.508 E34.10122
G1 X996.492 Y996.492 E34.47834
G1 X996.492 Y997.156 E34.50357
G1 X1002.844 Y1003.508 E34.84502
G1 X1002.181 Y1003.508 E34.87025
G1 X996.492 Y997.819 E35.17602
G1 X996.492 Y998.483 E35.20125
G1 X1001.517 Y1003.508 E35.47135
G1 X1000.853 Y1003.508 E35.49657
G1 X996.492 Y999.147 E35.73100
G1 X996.492 Y999.810 E35.75623
G1 X1000.190 Y1003.508 E35.95497
G1 X999.526 Y1003.508 E35.98020
G1 X996.492 Y1000.474 E36.14327
G1 X996.492 Y1001.138 E36.16850
G1 X998.862 Y1003.508 E36.29590
G1 X998.198 Y1003.508 E36.32113
G1 X996.492 Y1001.802 E36.41285
G1 X996.492 Y1002.465 E36.43807
G1 X997.535 Y1003.508 E36.49412
G1 X996.871 Y1003.508 E36.51935
G1 X996.492 Y1003.129 E36.53972
G1 Z1.000 F6000.000
G1 X1003.806 Y1003.806 F6000.000
G1 F900
G1 X996.194 Y1003.806 E36.86699
G1 X996.194 Y996.194 E37.19425
G1 X1003.806 Y996.194 E37.52152
G1 X1003.806 Y1003.746 E37.84621
G1 X1004.323 Y1004.323 F6000.000
G1 F900
G1 X995.677 Y1004.323 E38.21794
G1 X995.677 Y995.677 E38.58967
G1 X1004.323 Y995.677 E38.96140
G1 X1004.323 Y1004.263 E39.33055
G1 X1004.780 Y1004.780 F6000.000
G1 F900
G1 X995.220 Y1004.780 E39.64620
G1 X995.220 Y995.220 E39.96184
G1 X1004.780 Y995.220 E40.27749
G1 X1004.780 Y1004.720 E40.59115
G1 X1004.394 Y1004.676 F6000.000
G1 X1003.129 Y1003.508 F6000.000
G1 F1800
G1 X1003.508 Y1003.129 E40.61152
G1 X1003.508 Y1002.465 E40.63675
G1 X1002.465 Y1003.508 E40.69280
G1 X1001.802 Y1003.508 E40.71802
G1 X1003.508 Y1001.802 E40.80975
G1 X1003.508 Y1001.138 E40.83497
G1 X1001.138 Y1003.508 E40.96237
G1 X1000.474 Y1003.508 E40.98759
G1 X1003.508 Y1000.474 E41.15067
G1 X1003.508 Y999.811 E41.17589
G1 X999.811 Y1003.508 E41.37464
G1 X999.147 Y1003.508 E41.39987
G1 X1003.508 Y999.147 E41.63429
G1 X1003.508 Y998.483 E41.65952
G1 X998.483 Y1003.508 E41.92962
G1 X997.819 Y1003.508 E41.95484
G1 X1003.508 Y997.819 E42.26062
G1 X1003.508 Y997.156 E42.28584
G1 X997.156 Y1003.508 E42.62729
G1 X996.492 Y1003.508 E42.65252
G1 X1003.508 Y996.492 E43.02964
G1 X1002.844 Y996.492 E43.05487
G1 X996.492 Y1002.844 E43.39632
G1 X996.492 Y1002.181 E43.42155
G1 X1002.181 Y996.492 E43.72732
G1 X1001.517 Y996.492 E43.75255
G1 X996.492 Y1001.517 E44.02265
G1 X996.492 Y1000.853 E44.04787
G1 X1000.853 Y996.492 E44.28230
G1 X1000.190 Y996.492 E44.30752
G1 X996.492 Y1000.190 E44.50627
G1 X996.492 Y999.526 E44.53150
G1 X999.526 Y996.492 E44.69457
G1 X998.862 Y996.492 E44.71980
G1 X996.492 Y998.862 E44.84720
G1 X996.492 Y998.198 E44.87242
G1 X998.198 Y996.492 E44.96415
G1 X997.535 Y996.492 E44.98937
G1 X996.492 Y997.535 E45.04542
G1 X996.492 Y996.871 E45.07065
G1 X996.871 Y996.492 E45.09102
G1 Z1.200 F6000.000
G1 X1003.806 Y1003.806 F6000.000
G1 F900
G1 X996.194 Y1003.806 E45.41828
G1 X996.194 Y996.194 E45.74555
G1 X1003.806 Y996.194 E46.07282
G1 X1003.806 Y1003.746 E46.39751
G1 X1004.323 Y1004.323 F6000.000
G1 F900
G1 X995.677 Y1004.323 E46.76924
G1 X995.677 Y995.677 E47.14097
G1 X1004.323 Y995.677 E47.51270
G1 X1004.323 Y1004.263 E47.88185
G1 X1004.780 Y1004.780 F6000.000
G1 F900
G1 X995.220 Y1004.780 E48.19750
G1 X995.220 Y995.220 E48.51314
G1 X1004.780 Y995.220 E48.82879
G1 X1004.780 Y1004.720 E49.14245
G1 X1004.394 Y1004.676 F6000.000
G1 X1003.508 Y996.871 F6000.000
G1 F1800
G1 X1003.129 Y996.492 E49.16282
G1 X1002.465 Y996.492 E49.18805
G1 X1003.508 Y997.535 E49.24409
G1 X1003.508 Y998.198 E49.26932
G1 X1001.802 Y996.492 E49.36104
G1 X1001.138 Y996.492 E49.38627
G1 X1003.508 Y998.862 E49.51367
G1 X1003.508 Y999.526 E49.53889
G1 X1000.474 Y996.492 E49.70196
G1 X999.811 Y996.492 E49.72719
G1 X1003.508 Y1000.189 E49.92594
G1 X1003.508 Y1000.853 E49.95116
G1 X999.147 Y996.492 E50.18559
G1 X998.483 Y996.492 E50.21081
G1 X1003.508 Y1001.517 E50.48091
G1 X1003.508 Y1002.181 E50.50614
G1 X997.819 Y996.492 E50.81191
G1 X997.156 Y996.492 E50.83714
G1 X1003.508 Y1002.844 E51.17859
G1 X1003.508 Y1003.508 E51.20382
G1 X996.492 Y996.492 E51.58094
G1 X996.492 Y997.156 E51.60617
G1 X1002.844 Y1003.508 E51.94762
G1 X1002.181 Y1003.508 E51.97284
G1 X996.492 Y997.819 E52.27862
G1 X996.492 Y998.483 E52.30384
G1 X1001.517 Y1003.508 E52.57394
G1 X1000.853 Y1003.508 E52.59917
G1 X996.492 Y999.147 E52.83360
G1 X996.492 Y999.810 E52.85882
G1 X1000.190 Y1003.508 E53.05757
G1 X999.526 Y1003.508 E53.08280
G1 X996.492 Y1000.474 E53.24587
G1 X996.492 Y1001.138 E53.27110
G1 X998.862 Y1003.508 E53.39849
G1 X998.198 Y1003.508 E53.42372
G1 X996.492 Y1001.802 E53.51544
G1 X996.492 Y1002.465 E53.54067
G1 X997.535 Y1003.508 E53.59672
G1 X996.871 Y1003.508 E53.62194
G1 X996.492 Y1003.129 E53.64232
G1 Z1.400 F6000.000
G1 X1003.806 Y1003.806 F6000.000
G1 F900
G1 X996.194 Y1003.806 E53.96958
G1 X996.194 Y996.194 E54.29685
G1 X1003.806 Y996.194 E54.62412
G1 X1003.806 Y1003.746 E54.94880
G1 X1004.323 Y1004.323 F6000.000
G1 F900
G1 X995.677 Y1004.323 E55.32054
G1 X995.677 Y995.677 E55.69227
G1 X1004.323 Y995.677 E56.06400
G1 X1004.323 Y1004.263 E56.43315
G1 X1004.780 Y1004.780 F6000.000
G1 F900
G1 X995.220 Y1004.780 E56.74879
G1 X995.220 Y995.220 E57.06444
G1 X1004.780 Y995.220 E57.38009
G1 X1004.780 Y1004.720 E57.69375
G1 X1004.394 Y1004.676 F6000.000
G1 X1003.129 Y1003.508 F6000.000
G1 F1800
G1 X1003.508 Y1003.129 E57.71412
G1 X1003.508 Y1002.465 E57.73935
G1 X1002.465 Y1003.508 E57.79539
G1 X1001.802 Y1003.508 E57.82062
G1 X1003.508 Y1001.802 E57.91234
G1 X1003.508 Y1001.138 E57.93757
G1 X1001.138 Y1003.508 E58.06496
G1 X1000.474 Y1003.508 E58.09019
G1 X1003.508 Y1000.474 E58.25326
G1 X1003.508 Y999.811 E58.27849
G1 X999.811 Y1003.508 E58.47724
G1 X999.147 Y1003.508 E58.50246
G1 X1003.508 Y999.147 E58.73689
G1 X1003.508 Y998.483 E58.76211
G1 X998.483 Y1003.508 E59.03221
G1 X997.819 Y1003.508 E59.05744
G1 X1003.508 Y997.819 E59.36321
G1 X1003.508 Y997.156 E59.38844
G1 X997.156 Y1003.508 E59.72989
G1 X996.492 Y1003.508 E59.75511
G1 X1003.508 Y996.492 E60.13224
G1 X1002.844 Y996.492 E60.15747
G1 X996.492 Y1002.844 E60.49892
G1 X996.492 Y1002.181 E60.52414
G1 X1002.181 Y996.492 E60.82992
G1 X1001.517 Y996.492 E60.85514
G1 X996.492 Y1001.517 E61.12524
G1 X996.492 Y1000.853 E61.15047
G1 X1000.853 Y996.492 E61.38489
G1 X1000.190 Y996.492 E61.41012
G1 X996.492 Y1000.190 E61.60887
G1 X996.492 Y999.526 E61.63409
G1 X999.526 Y996.492 E61.79717
G1 X998.862 Y996.492 E61.82239
G1 X996.492 Y998.862 E61.94979
G1 X996.492 Y998.198 E61.97502
G1 X998.198 Y996.492 E62.06674
G1 X997.535 Y996.492 E62.09197
G1 X996.492 Y997.535 E62.14801
G1 X996.492 Y996.871 E62.17324
G1 X996.871 Y996.492 E62.19361
G1 Z1.600 F6000.000
G1 X1003.806 Y1003.806 F6000.000
G1 F900
G1 X996.194 Y1003.806 E62.52088
G1 X996.194 Y996.194 E62.84815
G1 X1003.806 Y996.194 E63.17541
G1 X1003.806 Y1003.746 E63.50010
G1 X1004.323 Y1004.323 F6000.000
G1 F900
G1 X995.677 Y1004.323 E63.87183
G1 X995.677 Y995.677 E64.24356
G1 X1004.323 Y995.677 E64.61529
G1 X1004.323 Y1004.263 E64.98445
G1 X1004.780 Y1004.780 F6000.000
G1 F900
G1 X995.220 Y1004.780 E65.30009
G1 X995.220 Y995.220 E65.61574
G1 X1004.780 Y995.220 E65.93138
G1 X1004.780 Y1004.720 E66.24505
G1 X1004.394 Y1004.676 F6000.000
G1 X1003.508 Y996.871 F6000.000
G1 F1800
G1 X1003.129 Y996.492 E66.26542
G1 X1002.465 Y996.492 E66.29064
G1 X1003.508 Y997.535 E66.34669
G1 X1003.508 Y998.198 E66.37192
G1 X1001.802 Y996.492 E66.46364
G1 X1001.138 Y996.492 E66.48886
G1 X1003.508 Y998.862 E66.61626
G1 X1003.508 Y999.526 E66.64149
